X: 1
T: Pilkku  [C]
M: 2/4
L: 1/8
Q: 1/4=50
K: C
|: "F"fA cc | fA cc | "Dm"fe dc | "G7"BA G2 :|
|: "C"Gc/c/ cc | "G7"cB Bd | fe/e/ dc | BA G2 :|
